X:101
T:Kerfunten, The
R:jig
C:Hammy Hamilton
Z:Transcribed by Dave Marshall
M:6/8
K:G
|: ~B3 BAG | GBd efg | dBd gdB | ~A3 AGA |
~B3 BAG | GBd efg | dBd gdB | ABA G3 :|
|:~g3 gab | ~e3 edB | ~g3 gab | bag a2b |
~g3 gab | ~e3 edB | dBd gdB | ABA G3 :|
